X:379
T: Trbsinn (106), S. 258
N: T0268
O: Luxemburg
S: Singendes Volk, Esch-Alzette 1937 posth.]
N: Straen, fff Witry, 13.12.1932
R: Liebeslieder]
M: 3/4
L: 1/16
K: A
A2A2c2 | e4f4e2d2 | d2c2c2
c2B2c2 | d4f4e2d2 | c4z2
A2G2F2 | E4F4E2D2 | C4z2
E2A2B2 | c4c4B2B2 | A4z2
A2G2A2 | B2c2B2E2A2B2 | c2d2c2
A2A2c2 | e4e4edd2 | c4z2

@@@ Tune index: 8433
